src/topics/icons/adroll.svg

<svg height="116" preserveAspectRatio="xMidYMid" viewBox="0 0 512 116" width="512" xmlns="http://www.w3.org/2000/svg"><g fill="#101010"><path d="m469.628797 78.6776438s3.881554-8.6480495 13.470185-7.6756738c0 0 9.864181.9723757 10.004606 11.7003022 0 0 .148373 10.7067304-13.618558 11.2233878h-55.597632v-93.26327876h-20.088699v112.03251376l74.864978.023846c33.341622-.545803 32.358648-29.4918628 32.358648-29.4918628-1.239977-29.8336511-28.606921-29.4150262-28.606921-29.4150262-11.803633.0423924-19.426317 7.1166241-22.984629 11.4379993z"/><path d="m203.589995.59084407h34.451773c12.900537 0 20.944495 2.42696486 27.319252 7.58294045 6.374757 5.16127458 13.202583 14.27034148 13.202583 27.16822898 0 7.4372166-2.73166 19.1242712-10.775618 26.8661831-6.674153 6.3721076-13.05156 7.8876359-18.665903 9.2547907l30.50663 41.4332717h-25.194333l-29.748866-42.9514495h-.302046v42.9514495h-20.793472zm20.793472 53.72176813h13.356255c17.150375 0 20.033059-11.3823592 20.033059-17.301398 0-6.2210846-3.79412-16.9940531-20.033059-16.9940531h-13.356255z"/><path d="m277.951563 70.8562461c0-25.4990282 20.793472-45.0763682 44.922696-45.0763682 23.829827 0 44.620649 18.9732483 44.620649 44.7716729 0 27.6239472-21.24654 45.0790182-44.620649 45.0790182-25.040661 0-44.922696-20.6424495-44.922696-44.7743229m69.359264.151023c0-15.327502-11.838077-26.7098612-24.436568-26.7098612-10.470923 0-24.741265 8.9527448-24.741265 26.5588382 0 15.9342432 11.9944 26.259442 24.741265 26.259442 14.72341 0 24.436568-12.7521637 24.436568-26.108419"/><path d="m374.317435.58819454h20.181432v112.31071346h-20.181432z"/></g><path d="m47.1302469.58819454h16.2389385l47.0529136 112.30806446h-22.9210403l-11.9891004-28.9884529h-40.2171395l-11.99175 28.9884529h-22.91839089zm-4.8565793 63.73962206h25.8010741l-12.7495141-34.4491236h-.3020459z" fill="#00aff0"/><path d="m193.429067 112.896259h-18.514881v-10.32255h-.304695c-3.79412 6.078011-12.595842 13.05686-26.863534 13.05686-21.397563 0-42.948799-17.6060939-42.948799-44.7743229 0-28.3817114 22.764718-45.0763682 42.948799-45.0763682 12.293796 0 19.57734 4.0988151 25.499029 10.3198997v-35.51423258h20.184081zm-43.558191-15.7832205c15.179129 0 24.892287-13.6609507 24.892287-26.4078153 0-13.8119736-10.624595-26.4078153-24.892287-26.4078153-15.022806 0-24.889637 13.960347-24.889637 25.7984246 0 15.6321973 11.687055 27.017206 24.889637 27.017206z" fill="#00aff0"/></svg>

<?xml version="1.0" encoding="UTF-8" standalone="no"?>
<svg width="512px" height="116px" viewBox="0 0 512 116" version="1.1" xmlns="http://www.w3.org/2000/svg" xmlns:xlink="http://www.w3.org/1999/xlink" preserveAspectRatio="xMidYMid">
	<g>
		<path d="M469.628797,78.6776438 C469.628797,78.6776438 473.510351,70.0295943 483.098982,71.00197 C483.098982,71.00197 492.963163,71.9743457 493.103588,82.7022722 C493.103588,82.7022722 493.251961,93.4090026 479.48503,93.92566 L423.887398,93.92566 L423.887398,0.662381241 L403.798699,0.662381241 L403.798699,112.694895 L478.663677,112.718741 C512.005299,112.172938 511.022325,83.2268782 511.022325,83.2268782 C509.782348,53.3932271 482.415404,53.811852 482.415404,53.811852 C470.611771,53.8542444 462.989087,60.9284761 459.430775,65.2498513 L469.628797,78.6776438" fill="#101010"></path>
		<path d="M203.589995,0.590844067 L238.041768,0.590844067 C250.942305,0.590844067 258.986263,3.01780893 265.36102,8.17378452 C271.735777,13.3350591 278.563603,22.444126 278.563603,35.3420135 C278.563603,42.7792301 275.831943,54.4662847 267.787985,62.2081966 C261.113832,68.5803042 254.736425,70.0958325 249.122082,71.4629873 L279.628712,112.896259 L254.434379,112.896259 L224.685513,69.9448095 L224.383467,69.9448095 L224.383467,112.896259 L203.589995,112.896259 L203.589995,0.590844067 L203.589995,0.590844067 Z M224.383467,54.3126122 L237.739722,54.3126122 C254.890097,54.3126122 257.772781,42.930253 257.772781,37.0112142 C257.772781,30.7901296 253.978661,20.0171611 237.739722,20.0171611 L224.383467,20.0171611 L224.383467,54.3126122 L224.383467,54.3126122 Z" fill="#101010"></path>
		<path d="M277.951563,70.8562461 C277.951563,45.3572179 298.745035,25.7798779 322.874259,25.7798779 C346.704086,25.7798779 367.494908,44.7531262 367.494908,70.5515508 C367.494908,98.175498 346.248368,115.630569 322.874259,115.630569 C297.833598,115.630569 277.951563,94.9881195 277.951563,70.8562461 M347.310827,71.0072691 C347.310827,55.6797671 335.47275,44.2974079 322.874259,44.2974079 C312.403336,44.2974079 298.132994,53.2501527 298.132994,70.8562461 C298.132994,86.7904893 310.127394,97.1156881 322.874259,97.1156881 C337.597669,97.1156881 347.310827,84.3635244 347.310827,71.0072691" fill="#101010"></path>
		<path d="M374.317435,0.588194542 L394.498867,0.588194542 L394.498867,112.898908 L374.317435,112.898908 L374.317435,0.588194542 Z" fill="#101010"></path>
		<path d="M47.1302469,0.588194542 L63.3691854,0.588194542 L110.422099,112.896259 L87.5010587,112.896259 L75.5119583,83.9078061 L35.2948188,83.9078061 L23.3030688,112.896259 L0.384677906,112.896259 L47.1302469,0.588194542 L47.1302469,0.588194542 Z M42.2736676,64.3278166 L68.0747417,64.3278166 L55.3252276,29.878693 L55.0231817,29.878693 L42.2736676,64.3278166 L42.2736676,64.3278166 Z" fill="#00AFF0"></path>
		<path d="M193.429067,112.896259 L174.914186,112.896259 L174.914186,102.573709 L174.609491,102.573709 C170.815371,108.65172 162.013649,115.630569 147.745957,115.630569 C126.348394,115.630569 104.797158,98.0244751 104.797158,70.8562461 C104.797158,42.4745347 127.561876,25.7798779 147.745957,25.7798779 C160.039753,25.7798779 167.323297,29.878693 173.244986,36.0997776 L173.244986,0.585545017 L193.429067,0.585545017 L193.429067,112.896259 L193.429067,112.896259 Z M149.870876,97.1130385 C165.050005,97.1130385 174.763163,83.4520878 174.763163,70.7052232 C174.763163,56.8932496 164.138568,44.2974079 149.870876,44.2974079 C134.84807,44.2974079 124.981239,58.2577549 124.981239,70.0958325 C124.981239,85.7280298 136.668294,97.1130385 149.870876,97.1130385 L149.870876,97.1130385 Z" fill="#00AFF0"></path>
	</g>
</svg>
